!!!COM: Palestrina, Giovanni Perluigi da
!!!OPR: Missa Veni Sancte Spiritus
!!!OMD: Credo
!!!OTL: Crucifixus
**kern	**kern	**kern	**kern
*Ibass	*Itenor	*Itenor	*Icalto
!Bassus	!Tenor 2	!Tenor 1	!Altus
*clefF4	*clefGv2	*clefGv2	*clefG2
*k[b-]	*k[b-]	*k[b-]	*k[b-]
*G:dor	*G:dor	*G:dor	*G:dor
*M4/2	*M4/2	*M4/2	*M4/2
=90	=90	=90	=90
0G	0d	0B-	0g
=91	=91	=91	=91
1D	1d	1A	1f#
1G	1d	1B	1g
=92	=92	=92	=92
1C	1e	1c	1g
[1F	[1f	[1c	[1a
=93	=93	=93	=93
2F]	2f]	2c]	2a]
2G	2d	2B-	2g
2D	2d	1A	2.f
2F	[2d	.	.
.	.	.	4d
=94	=94	=94	=94
1E	4d]	2.G	1.g
.	8c	.	.
.	8B	.	.
.	2c#	.	.
.	.	4A	.
1D	1d	4B-	.
.	.	4c	.
.	.	[2d	2f
=95	=95	=95	=95
2r	1A	2d]	1e
2A	.	2c#	.
2.B-	1r	1d	2d
.	.	.	2f
4A	.	.	.
=96	=96	=96	=96
2G	1d	2r	2b-
2F#	.	2A	2a
2.G	2.e-	2.B-	1g
4F	4d	4A	.
=97	=97	=97	=97
2E-	2c	2G	1r
2D	2B-	2F	.
1C	1e-	1c	2r
.	.	.	2g
=98	=98	=98	=98
1BB-	2d	1F	2.b-
.	2d	.	.
.	.	.	4a
2r	2e-	1r	2g
2D	2d	.	2f#
=99	=99	=99	=99
2.E-	2c	2r	2.g
.	2B-	1G	.
4D	.	.	4f
2C	2c	.	2e-
2BB-	2F	[2B-	2d
=100	=100	=100	=100
1F	2r	4B-]	1c
.	.	8A	.
.	.	8G	.
.	1f	2A	.
2BB-	.	1B-	1B-
[2B-	2d	.	.
=101	=101	=101	=101
2B-]	0d	2r	1r
2G	.	1B-	.
1G	.	.	[1b-
.	.	2G	.
=102	=102	=102	=102
1E-	1e-	2G	2b-]
.	.	2B-	2g
1C	1e-	[1c	2g
.	.	.	[2a
=103	=103	=103	=103
0D	0d	2c]	2a]
.	.	2B-	1g
.	.	1A	.
.	.	.	2f#
=104	=104	=104	=104
0G	1d	4G	2g
.	.	4A	.
.	.	4B-	2g
.	.	4c	.
.	2r	1d	[1b-
.	2G	.	.
=105	=105	=105	=105
0r	2B-	0r	2b-]
.	2c	.	2a
.	2d	.	2f
.	2e	.	2g
=106	=106	=106	=106
1r	2.f	0r	2.a
.	4d	.	4b-
2r	2e	.	2g
2D	[2f	.	[2a
=107	=107	=107	=107
2F	4f]	0r	2a]
.	4e	.	.
2G	1d	.	4g
.	.	.	4f
2A	.	.	1e
2A	2c#	.	.
=108	=108	=108	=108
2.B-	[0d	2.G	1d
4G	.	4G	.
2A	.	2F#	1r
[2B-	.	[2G	.
=109	=109	=109	=109
4B-]	1d]	4G]	1r
4A	.	4A	.
1G	.	4B-	.
.	.	4G	.
.	1r	1A	2r
2F#	.	.	2a
=110	=110	=110	=110
1G	1d	2G	1b-
.	.	2B-	.
1C	1e-	1c	2g
.	.	.	2g
=111	=111	=111	=111
1F	2c	2A	2.a
.	2c	1A	.
.	.	.	4g
1D	2.d	.	4f
.	.	.	4e
.	.	[2d	[2f
.	4c	.	.
=112	=112	=112	=112
1G	4B-	2d]	2f]
.	4A	.	.
.	1B-	4c	2e
.	.	4B-	.
1F	.	1c	1f
.	2A	.	.
=113	=113	=113	=113
0BB-	[0B-	1d	2r
.	.	.	2d
.	.	2r	2d
.	.	2f	4B-
.	.	.	4c
=114	=114	=114	=114
1r	1B-]	2f	4d
.	.	.	4e
.	.	4d	2f
.	.	4e	.
2r	1r	4f	4d
.	.	4g	4e
2F	.	2a	4f
.	.	.	4g
=115	=115	=115	=115
2F	0r	2.f	2.a
4D	.	.	.
4E	.	4e	4g
4F	.	2d	2f
4G	.	.	.
2A	.	4c	4e
.	.	4d	4f
=116	=116	=116	=116
2G	0r	4e	4g
.	.	8d	8f
.	.	8e	8g
2F	.	1f	2a
1c	.	.	1g
.	.	2e	.
=117	=117	=117	=117
0d	2r	1f	1f
.	2B-	.	.
.	2B-	2r	1r
.	4G	2d	.
.	4A	.	.
=118	=118	=118	=118
0r	4B-	2d	2r
.	4c	.	.
.	2d	4B-	2f
.	.	4c	.
.	[1B-	4d	2f
.	.	4e	.
.	.	2f	4d
.	.	.	4e
=119	=119	=119	=119
0r	2B-]	2d	4f
.	.	.	4g
.	2A	2c	2a
.	2c	2e	2g
.	[2d	[2f	2f
=120	=120	=120	=120
0r	4d]	4f]	1d
.	4c	4e	.
.	2B-	2.d	.
.	1A	.	1e
.	.	8c	.
.	.	8B	.
.	.	2c#	.
=121	=121	=121	=121
2r	2r	2.d	1d
2D	2f	.	.
.	.	8c	.
.	.	8B-	.
2D	2f	2A	2r
4BB-	4d	2B-	2d
4C	4e	.	.
=122	=122	=122	=122
4D	4f	1F	2d
4E	4g	.	.
2F	2a	.	2A
2E-	2g	1r	2c
2D	2f	.	2d
=123	=123	=123	=123
2.G	1d	2r	2.B-
.	.	2B-	.
4A	.	.	4c
2.B-	2r	2B-	2d
.	[2g	4G	4B-
4A	.	4A	4c
=124	=124	=124	=124
2G	2g]	4B-	4d
.	.	4c	4e
2D	2.f	2d	4f
.	.	.	4g
2F	.	2c	4a
.	4e-	.	8g
.	.	.	8a
2G	[2d	2B-	[2b-
=125	=125	=125	=125
1E-	4d]	1G	4b-]
.	8c	.	4a
.	8B-	.	.
.	2c	.	1g
1D	1d	1A	.
.	.	.	2f#
=126	=126	=126	=126
[0G	[0d	[0B	[0g
=127	=127	=127	=127
0G]	0d]	0B]	0g]
*-	*-	*-	*-
!!!CDT: 1525/^1526/-1594/2/2
!!!OCY: Italia
!!!AGN: Mass (Parody)
!!!AST: renaissance, vocal
!!!ASW: Motet (unidentified (Pal?))
!!!PWK: Masses, Book 4
!!!RNB: Cadence finals: D
!!!YOR: Le Opere Complete, v. 10, p. 115
!!!YOO: Rome, Italy: Fratelli Scalera
!!!END: 1992//
!!!EED: John Miller
!!!YEC: Copyright 2000, John Miller
!!!YEN: United States of America
!!!YEM: Rights to all derivative electronic formats reserved.
!!!YEM: Refer to licensing agreement for further details.
!!!YEM: This file must be accompanied by the licensing agreement.
!!!YEM: A copy of the licensing agreement may be found at http://www.music-cog.ohio-state.edu/HumdrumDatabases/Palestrina/license.txt
!!!EMD: converted to Humdrum by Bret Aarden
